source/img/icon-3.svg

<svg width="87" height="105" fill="none" xmlns="http://www.w3.org/2000/svg"><path d="M70.7 46.15c11.25-4.8 16.05-14.55 16.05-21.6C86.75 12.25 78.2.7 54.5.7 41 .7 30.2 2.65 11.9 10.45l7.35 21.75c11.55-5.1 19.2-6.9 25.8-6.9 5.1 0 7.2 2.55 7.2 5.1 0 6.6-8.7 9.6-25.5 12.75l3.3 19.05c6.45-.9 9.45-1.05 11.1-1.05 5.7 0 10.65 1.95 10.65 7.2 0 8.85-8.55 11.1-17.1 11.1-7.05 0-13.65-1.8-24.3-5.25L.5 96.4c11.1 7.05 30.6 8.25 36.6 8.25 31.65 0 49.2-16.35 49.2-36.9 0-7.65-4.05-16.8-15.75-20.7l.15-.9z" fill="#00A9CF"/></svg>

<svg width="87" height="105" viewBox="0 0 87 105" fill="none" xmlns="http://www.w3.org/2000/svg">
<path d="M70.7 46.15C81.95 41.35 86.75 31.6 86.75 24.55C86.75 12.25 78.2 0.699994 54.5 0.699994C41 0.699994 30.2 2.65 11.9 10.45L19.25 32.2C30.8 27.1 38.45 25.3 45.05 25.3C50.15 25.3 52.25 27.85 52.25 30.4C52.25 37 43.55 40 26.75 43.15L30.05 62.2C36.5 61.3 39.5 61.15 41.15 61.15C46.85 61.15 51.8 63.1 51.8 68.35C51.8 77.2 43.25 79.45 34.7 79.45C27.65 79.45 21.05 77.65 10.4 74.2L0.5 96.4C11.6 103.45 31.1 104.65 37.1 104.65C68.75 104.65 86.3 88.3 86.3 67.75C86.3 60.1 82.25 50.95 70.55 47.05L70.7 46.15Z" fill="#00A9CF"/>
</svg>
